!!!COM:	Josquin de Pres?
**kern	**kern
*part2	*part1
*staff2	*staff1
*clefF4	*clefGv2
*k[]	*k[]
*M2/1	*M2/1
=1-	=1-
1C	0c
1F	.
=2	=2
1E	1c
2D	[1d
[2G	.
=3	=3
2G]	1d]
2A	.
1B	1d
=4	=4
1c	0e
1r	.
=5	=5
0C	1e
.	[1c
=6	=6
1C	1c]
[1F	1c
=7	=7
2F]	1.f
2G	.
1A	.
.	2e
=8	=8
2.B	1d
4G	.
2A	2c
[2B	[2d
=9	=9
2B]	2d]
1G	2B
.	1A
2F	.
=10	=10
0G	[0G
=11	=11
1r	0G]
1G	.
=12	=12
1G	0r
1F	.
=13	=13
1E	1r
2E	1g
[2G	.
=14	=14
2G]	1g
4F	.
4E	.
1D	1f
=15	=15
0C	1e
.	2e
.	[2g
=16	=16
1c	2g]
.	4f
.	4e
1B	1d
=17	=17
2A	2.c
1c	.
.	4d
.	2e
2B	[2d
=18	=18
1G	2d]
.	4c
.	4B
1F	1A
=19	=19
1.G	2.G
.	4A
.	2B
2A	2c
=20	=20
2B	2G
2c	2c
1G	2d
.	[2e
=21	=21
1C	4e]
.	4f
.	2.g
1G	.
.	4f
.	4e
.	4d
=22	=22
1A	4f
.	4e
.	4d
.	4c
2G	1B
[2G	.
=23	=23
2G]	1g
2E	.
2F	2f
2G	[2e
=24	=24
1C	2e]
.	4d
.	4c
1D	2.B
.	4A
=25	=25
0C	0c
==	==
*-	*-
